src/assets/icons/category_HomeGarden.svg

<?xml version="1.0" encoding="UTF-8" standalone="no"?>
<svg width="38px" height="38px" viewBox="0 0 38 38" version="1.1" xmlns="http://www.w3.org/2000/svg" xmlns:xlink="http://www.w3.org/1999/xlink">
    <!-- Generator: sketchtool 41.2 (35397) - http://www.bohemiancoding.com/sketch -->
    <title>61D3A231-3CEB-4594-88AE-485CBDFC6781</title>
    <desc>Created with sketchtool.</desc>
    <defs></defs>
    <g id="Nav" stroke="none" stroke-width="1" fill="none" fill-rule="evenodd">
        <g id="Categories_Selected_Mobile-" fill="#333" transform="translate(-80.000000, -336.000000)">
            <path d="M107,365.958333 L105.419833,365.958333 L105.416667,365.958333 C105.415875,365.958333 105.415083,365.959125 105.4135,365.959125 L96.7083333,365.962292 L96.7083333,365.958333 L96.7083333,344.583333 C96.7083333,344.582542 96.7075417,344.58175 96.7075417,344.580958 L107,344.577 L107,365.958333 Z M89.5833333,365.958333 L89.577,344.580167 L95.125,344.580958 L95.125,344.583333 L95.125,365.958333 C95.125,365.959917 95.1257917,365.960708 95.1257917,365.962292 L91.194375,365.963875 C91.184875,365.963875 91.1761667,365.955167 91.1666667,365.955167 C91.156375,365.955167 91.1484583,365.958333 91.1389583,365.958333 L89.5833333,365.958333 Z M107.006333,343 L89.577,343 C88.70775,343 88,343.70775 88,344.577 L88,365.964667 C88,366.833917 88.70775,367.541667 89.577,367.541667 L90.375,367.541667 C90.375,367.978667 90.7296667,368.333333 91.1666667,368.333333 C91.6036667,368.333333 91.9583333,367.978667 91.9583333,367.541667 L104.625,367.541667 C104.625,367.978667 104.979667,368.333333 105.416667,368.333333 C105.853667,368.333333 106.208333,367.978667 106.208333,367.541667 L107.006333,367.541667 C107.875583,367.541667 108.583333,366.833917 108.583333,365.964667 L108.583333,344.577 C108.583333,343.70775 107.875583,343 107.006333,343 Z M92.75,358.041667 C93.187,358.041667 93.5416667,357.687 93.5416667,357.25 L93.5416667,353.291667 C93.5416667,352.854667 93.187,352.5 92.75,352.5 C92.313,352.5 91.9583333,352.854667 91.9583333,353.291667 L91.9583333,357.25 C91.9583333,357.687 92.313,358.041667 92.75,358.041667 Z M99.0833333,358.041667 C99.5203333,358.041667 99.875,357.687 99.875,357.25 L99.875,353.291667 C99.875,352.854667 99.5203333,352.5 99.0833333,352.5 C98.6463333,352.5 98.2916667,352.854667 98.2916667,353.291667 L98.2916667,357.25 C98.2916667,357.687 98.6463333,358.041667 99.0833333,358.041667 Z" id="Combined-Shape"></path>
        </g>
    </g>
</svg>

<svg width="38" height="38" viewBox="0 0 38 38" xmlns="http://www.w3.org/2000/svg"><g id="Nav" fill="none" fill-rule="evenodd"><g id="Categories_Selected_Mobile-" fill="#333" transform="translate(-80 -336)"><path d="M107 365.958h-1.583l-.004.001-8.705.003v-21.379-.002l10.292-.004v21.381zm-17.417 0l-.006-21.378 5.548.001v21.381l-3.93.002c-.01 0-.019-.009-.028-.009-.01 0-.019.003-.028.003h-1.556zM107.006 343H89.577A1.58 1.58 0 0 0 88 344.577v21.388c0 .869.708 1.577 1.577 1.577h.798a.792.792 0 0 0 1.583 0h12.667a.792.792 0 0 0 1.583 0h.798a1.58 1.58 0 0 0 1.577-1.577v-21.388a1.58 1.58 0 0 0-1.577-1.577zM92.75 358.042a.792.792 0 0 0 .792-.792v-3.958a.792.792 0 0 0-1.584 0v3.958c0 .437.355.792.792.792zm6.333 0a.792.792 0 0 0 .792-.792v-3.958a.792.792 0 0 0-1.583 0v3.958c0 .437.354.792.791.792z" id="Combined-Shape"/></g></g></svg>
